!!!OTL: Romanze.
!!!OTL-incipit: ACH MUSSTE DER TOD IHN UNS NEHMEN
!!!COM: E. H. Mehul
!!!ARE: Europa, Mitteleuropa, Deutschland
!!!SCT: F0835
!!!TXL: @@DE
!!!YEM: Copyright 1995, estate of Helmut Schaffrath.
**kern	**text
*ICvox	*
*M3/8	*
*k[f#c#g#]	*
*A:	*
!LO:TX:a:t=Ruhig.	!
!LO:TX:a:t=(Aus der Oper "Joseph un Aegypten".)	!
{8cc#	1._Acht
=1	=1
8dd	muß-
8cc#	-te
8b	der
=2	=2
8a	Tod
8g#	ihn
8a	uns
=3	=3
4.b	neh-
=4	=4
8cc#	-men,
8r}	.
{8cc#	den
=5	=5
8dd	Sohn,
8cc#	den
8b	ſo
=6	=6
4a	ſehr
8a	der
=7	=7
8a	Va-
8f#	-ter
8g#	ge-
=8	=8
8a	-liebt!
8r}	.
{8cc#	Jch
=9	=9
8dd	ſeh'
8cc#	ihn
8b	noch
=10	=10
8a	im-
8g#	-mer
8a	ſich
=11	=11
4.b	grä-
=12	=12
8cc#	-men,
8r}	.
{8cc#	noch
=13	=13
8dd	immer
8cc#	.
8b	den
=14	=14
4a	Blick
8a	von
=15	=15
8a	Thränen
8f#	.
8g#	ge-
=16	=16
8a	-trübt.
8r}	.
{8a	Damit
=17	=17
8b	.
8b	ich
8dd	den
=18	=18
8cc#	Va-
8cc#	-ta
8ee	ver-
=19	=19
4.dd	-gnü-
=20	=20
4cc#	-ge,
8r}	.
=21	=21
{8b	lä-
8b	-chelt
8dd	ihm
=22	=22
4cc#	oft
8ee	mein
=23	=23
8dd	klin-
8dd	-li-
8dd	-cher
=24	=24
4cc#	Blick;
8r}	.
=25	=25
{4cc#	und
8b	er
=26	=26
8a	sin-
8g#	-dez,
8f#	o
=27	=27
4b	welch
8a\	ein
=28	=28
4g#}	Glück!
{8cc#	im
=29	=29
8ddL	Lä-
8cc#J	.
8b	-cheln
=30	=30
8aL	Jo-
8g#J	.
8a	-ſephs
=31	=31
4.ee	Zü-
=32	=32
8cc#	-ge,
8r}	.
{8cc#	im
=33	=33
8ddL	Lä-
8cc#J	.
8b	-cheln
=34	=34
8aL	Jo-
8g#J	.
8a	-ſephs
=35	=35
4.b	Zü-
=36	=36
8a	-ge.
8r}	.
==	==
!!!AGN: Romanze
!!!ONB: ESAC (Essen Associative Code) Database: FINK
!!!AMT: simple triple
!!!AIN: vox
!!!EED: Helmut Schaffrath
!!!EEV: 1.0
!!!GTL: Romanzen und Balladen.
!!!source: Musikalischer Hausschatz der Deutschen. Eine Sammlung von über 1000 Liedern und Gesängen mit Singstimmen und Klavierbegleitung. Leipzig, Litterarisches Verlags-Haus.
!!!page: 590
!!!ENC: Anna Maria Matuszewska
!!!EEV: 2025/03/19
*-	*-
